X:23
T: Qiao luo da gu nao yang chun
N: C1523
O: China,Guangxi, Lingguei
S: II, 518]
R: Xiaodiao, Fengsuge, Wadige]
M: 2/4
L: 1/16
K: F
c2d2A4 | g2ega2a2 | d8 | g2a2f2g2 | g2g2g2f2 | d8 |
c2d2A4 | g2agf2d2 | c8 | g2a2f2g2 | g2f2d2c2 | d8 |
c2d2A4 | g4g2g2 | g2f2f2d2 | d8 |
c2d2A4 | g2a2g2a2 | d8 | g2a2g2g2 | f2d2d4 |
c2d2A4 | g2g2g2a2 | d8 | g2d2f2g2 | f2f2d4 |
c2d2A4 | g2a2d4 | g4a4 | g4f2f2 | f2d2c2d2 | d8 |
c2d2f2d2 | g4g2g2 | d8

@@@ Tune index: 6578
